!!!OTL: ES WAR EINMAL EIN GAERTNER
!!!ARE: Europa, Mitteleuropa, Deutschland
!!!SCT: B0481
!!!YEM: Copyright 1995, estate of Helmut Schaffrath.
**kern
*ICvox
*Ivox
*M4/4
*k[b-]
*F:
{4c
=1
4f
4f
4g
4g
=2
4.a
8b-
4cc}
{8cc
8a
=3
4f
8f
8a
4g
4g
=4
2f
4r}
{8a
8b-
=5
4cc
4cc
4cc
8dd
8cc
=6
8cc
8b-
4b-
4r}
{8g
8a
=7
4b-
4b-
4b-
8b-
8cc
=8
8b-
8a
4a
4r}
{8cc
8a
=9
4f
4f
4g
4g
=10
4.a
8b-
4cc}
{8cc
8a
=11
4f
4f
4g
4g
=12
2f
4r}
==
!!!AGN: Liebes - Lied, Leid, Klage
!!!ONB: ESAC (Essen Associative Code) Database: BOEHME
!!!AMT: simple quadruple
!!!AIN: vox
!!!EED: Helmut Schaffrath
!!!EEV: 1.0
*-
